Numix-GalliumOS/48/categories/applications-photography.svg

<?xml version="1.0" encoding="UTF-8" standalone="no"?>
<svg
   xmlns:dc="http://purl.org/dc/elements/1.1/"
   xmlns:cc="http://creativecommons.org/ns#"
   xmlns:rdf="http://www.w3.org/1999/02/22-rdf-syntax-ns#"
   xmlns:svg="http://www.w3.org/2000/svg"
   xmlns="http://www.w3.org/2000/svg"
   xmlns:sodipodi="http://sodipodi.sourceforge.net/DTD/sodipodi-0.dtd"
   xmlns:inkscape="http://www.inkscape.org/namespaces/inkscape"
   width="48"
   height="48"
   viewBox="0 0 38.4 38.4"
   id="svg2"
   version="1.1"
   inkscape:version="0.91 r"
   sodipodi:docname="applications-photography.svg">
  <metadata
     id="metadata18">
    <rdf:RDF>
      <cc:Work
         rdf:about="">
        <dc:format>image/svg+xml</dc:format>
        <dc:type
           rdf:resource="http://purl.org/dc/dcmitype/StillImage" />
        <dc:title />
      </cc:Work>
    </rdf:RDF>
  </metadata>
  <defs
     id="defs16" />
  <sodipodi:namedview
     pagecolor="#ffffff"
     bordercolor="#666666"
     borderopacity="1"
     objecttolerance="10"
     gridtolerance="10"
     guidetolerance="10"
     inkscape:pageopacity="0"
     inkscape:pageshadow="2"
     inkscape:window-width="1680"
     inkscape:window-height="1026"
     id="namedview14"
     showgrid="true"
     inkscape:zoom="9.9368421"
     inkscape:cx="-0.77913546"
     inkscape:cy="15.115444"
     inkscape:window-x="0"
     inkscape:window-y="24"
     inkscape:window-maximized="1"
     inkscape:current-layer="svg2">
    <inkscape:grid
       type="xygrid"
       id="grid4146" />
  </sodipodi:namedview>
  <path
     style="fill:none;stroke:#e08dc9;stroke-width:2.4000001;stroke-linecap:round;stroke-linejoin:round;stroke-miterlimit:4;stroke-dasharray:none"
     d="m 6.5677709,10.8 25.2644581,0 C 32.586861,10.8 33.2,11.40404 33.2,12.151347 l 0,15.701178 C 33.2,28.59596 32.586861,29.2 31.832229,29.2 l -25.2644581,0 C 5.8131387,29.2 5.2,28.59596 5.2,27.852525 l 0,-15.701178 C 5.2,11.40404 5.8131387,10.8 6.5677709,10.8 Z"
     id="path4"
     inkscape:connector-curvature="0" />
  <path
     style="fill:#e08dc9"
     inkscape:connector-curvature="0"
     id="path8"
     d="M 8.9352978,8 12.664701,8 C 13.183438,8 13.6,8.5355782 13.6,9.2025268 13.6,9.86442 13.183438,10.4 12.664701,10.4 l -3.7294032,0 C 8.4165609,10.4 8,9.86442 8,9.2025268 8,8.5355782 8.4165609,8 8.9352978,8 Z" />
  <path
     style="fill:#e08dc9"
     inkscape:connector-curvature="0"
     id="path10"
     d="m 28.802247,12.8 0.798876,0 C 30.042696,12.8 30.4,13.160168 30.4,13.601122 l 0,0.801121 C 30.4,14.843197 30.042696,15.2 29.601123,15.2 l -0.798876,0 C 28.357303,15.2 28,14.843197 28,14.402243 l 0,-0.801121 C 28,13.160168 28.357303,12.8 28.802247,12.8 Z" />
  <path
     style="fill:none;stroke:#e08dc9;stroke-width:2.4000001;stroke-miterlimit:4;stroke-dasharray:none"
     d="M 25.2,19.999979 C 25.2,23.314757 22.514766,26 19.2,26 c -3.314768,0 -6,-2.685243 -6,-6.000021 0,-3.314779 2.685232,-6.000022 6,-6.000022 3.314766,0 6,2.685243 6,6.000022 z"
     id="path12"
     inkscape:connector-curvature="0" />
</svg>

<svg xmlns="http://www.w3.org/2000/svg" width="48" height="48" viewBox="0 0 38.4 38.4">
 <path d="m 6.568 10.8 25.26 0 c 0.755 0 1.368 0.604 1.368 1.351 l 0 15.701 c 0 0.743 -0.613 1.347 -1.368 1.347 l -25.26 0 c -0.755 0 -1.368 -0.604 -1.368 -1.347 l 0 -15.701 c 0 -0.747 0.613 -1.351 1.368 -1.351" style="stroke-dasharray:none;fill:none;stroke-miterlimit:4;stroke:#e08dc9;stroke-linecap:round;stroke-linejoin:round;stroke-width:2.4"/>
 <path d="m 8.935 8 3.729 0 c 0.519 0 0.935 0.536 0.935 1.203 0 0.662 -0.417 1.197 -0.935 1.197 l -3.729 0 c -0.519 0 -0.935 -0.536 -0.935 -1.197 0 -0.667 0.417 -1.203 0.935 -1.203" style="fill:#e08dc9"/>
 <path d="m 28.802 12.8 0.799 0 c 0.442 0 0.799 0.36 0.799 0.801 l 0 0.801 c 0 0.441 -0.357 0.798 -0.799 0.798 l -0.799 0 c -0.445 0 -0.802 -0.357 -0.802 -0.798 l 0 -0.801 c 0 -0.441 0.357 -0.801 0.802 -0.801" style="fill:#e08dc9"/>
 <path d="m 25.2 20 c 0 3.315 -2.685 6 -6 6 c -3.315 0 -6 -2.685 -6 -6 0 -3.315 2.685 -6 6 -6 3.315 0 6 2.685 6 6 z" style="stroke-dasharray:none;fill:none;stroke-miterlimit:4;stroke:#e08dc9;stroke-width:2.4"/>
</svg>
